src/topics/icons/google-gmail.svg

<svg height="194" preserveAspectRatio="xMidYMid" viewBox="0 0 256 194" width="256" xmlns="http://www.w3.org/2000/svg" xmlns:xlink="http://www.w3.org/1999/xlink"><linearGradient id="a" x1=".00389%" x2="100.032232%" y1="49.997619%" y2="49.997619%"><stop offset="0" stop-opacity=".1"/><stop offset="1" stop-opacity=".2"/></linearGradient><path d="m238.833923 193.595007h-222.6797035c-8.63451906 0-15.90569305-7.04395-15.90569305-15.905693v-160.8747242c0-8.63451907 7.0439498-15.90569305 15.90569305-15.90569305h222.6797035c8.634519 0 15.905693 7.04394979 15.905693 15.90569305v160.8747242c0 8.861743-7.04395 15.905693-15.905693 15.905693z" fill="#e3e3e3"/><path d="m32.0599126 193.595007 95.2069344-76.574551.681673-4.090035-98.1608492-70.6667222-.2272242 147.9229452z" fill="#231f20" opacity=".1"/><path d="m16.1542195 193.595007c-8.86174325 0-15.90569305-7.04395-15.90569305-15.905693v-161.1019484c0-8.86174324 7.0439498-10.45231255 15.90569305-10.45231255 8.8617433 0 15.9056931 1.81779349 15.9056931 10.45231255v177.0076414z" fill="#d54b3d"/><path d="m16.1542195 8.40729492c11.3612094 0 13.6334513 3.40836278 13.6334513 8.18007068v174.7353994h-13.6334513c-7.49839813 0-13.63345118-6.135053-13.63345118-13.633451v-161.1019484c0-4.9989321 2.27224187-8.18007068 13.63345118-8.18007068zm0-2.27224187c-8.86174325 0-15.90569305 1.81779349-15.90569305 10.45231255v161.1019484c0 8.861743 7.0439498 15.905693 15.90569305 15.905693h15.9056931v-177.0076414c0-8.86174324-7.0439498-10.45231255-15.9056931-10.45231255z" fill="#d72b27"/><path d="m238.833923 193.595007h-15.905693v-177.4620897c0-8.86174332 7.043949-9.99786425 15.905693-9.99786425 8.861743 0 15.905693 1.13612093 15.905693 9.99786425v161.7836207c0 8.634519-7.04395 15.678469-15.905693 15.678469z" fill="#d54b3d"/><path d="m238.833923 8.40729492c10.225088 0 13.633451 2.04501768 13.633451 7.72562238v161.7836207c0 7.498399-6.135053 13.633452-13.633451 13.633452h-13.633451v-175.4170727c0-5.9078289 3.408362-7.72562238 13.633451-7.72562238zm0-2.27224187c-8.861744 0-15.905693 1.13612093-15.905693 9.99786425v177.6893137h15.905693c8.861743 0 15.905693-7.043949 15.905693-15.905693v-161.7836207c0-8.86174332-7.04395-9.99786425-15.905693-9.99786425z" fill="#d72b27"/><path d="m170.666667 193.595007-169.08686794-170.4002526 8.89381584 3.6176997 117.7021291 84.7546219 126.563876-92.8066129-.000004 159.1560749c0 8.634519-7.04395 15.678469-15.905693 15.678469z" fill="url(#a)"/><path d="m127.266847 117.020456-120.20159494-87.2540875c-7.04394979-5.2261563-9.08896748-15.2240205-3.86281118-22.26797033 5.2261563-7.0439498 15.45124472-8.6345191 22.72241872-3.4083628l101.5692114 73.84786073 102.250884-74.75675748c7.04395-5.2261563 17.041814-3.63558699 22.267971 3.63558699 5.226156 7.04394979 3.635587 17.04181399-3.635587 22.26797029z" fill="#d54b3d"/><path d="m238.833923 2.27224187c4.317259 0 8.407295 2.04501768 11.133985 5.68060467 4.317259 6.13505306 2.953914 14.54234796-2.953915 19.08683166l-119.747146 87.2540878-118.83824982-86.345191c-6.13505304-4.5444837-7.72562235-13.1790028-3.4083628-19.08683171 2.49946606-3.4083628 6.81672562-5.68060467 11.36120932-5.68060467 2.9539145 0 5.9078289.90889675 8.1800708 2.72669024l101.3419875 73.62063654 1.363345.9088968 1.363345-.9088968 102.02366-74.75675747c2.499466-1.59056931 5.226156-2.49946606 8.180071-2.49946606zm0-2.27224187c-3.181139 0-6.589502.90889675-9.316192 2.95391443l-102.250884 74.75675747-101.5692116-73.84786072c-2.7266903-2.04501768-6.1350531-2.95391443-9.5434159-2.95391443-4.9989321 0-9.99786418 2.27224187-13.1790028 6.58950142-4.99893212 7.04394983-2.95391443 17.04181403 4.09003536 22.26797033l120.20159494 87.4813115 120.883267-88.1629841c7.04395-5.2261563 8.63452-14.9967963 3.635587-22.26797029-3.181138-4.54448374-7.952846-6.81672561-12.951778-6.81672561z" fill="#d72b27"/></svg>

<?xml version="1.0" encoding="UTF-8" standalone="no"?>
<svg width="256px" height="194px" viewBox="0 0 256 194" version="1.1" xmlns="http://www.w3.org/2000/svg" xmlns:xlink="http://www.w3.org/1999/xlink" preserveAspectRatio="xMidYMid">
    <defs>
        <linearGradient x1="0.00388991071%" y1="49.997619%" x2="100.032232%" y2="49.997619%" id="linearGradient-1">
            <stop stop-color="#000000" stop-opacity="0.1" offset="0%"></stop>
            <stop stop-color="#000000" stop-opacity="0.2" offset="100%"></stop>
        </linearGradient>
</defs>
	<g>
		<path d="M238.833923,193.595007 L16.1542195,193.595007 C7.51970044,193.595007 0.248526454,186.551057 0.248526454,177.689314 L0.248526454,16.8145898 C0.248526454,8.18007073 7.29247625,0.908896748 16.1542195,0.908896748 L238.833923,0.908896748 C247.468442,0.908896748 254.739616,7.95284654 254.739616,16.8145898 L254.739616,177.689314 C254.739616,186.551057 247.695666,193.595007 238.833923,193.595007 L238.833923,193.595007 Z" fill="#E3E3E3"></path>
		<path d="M32.0599126,193.595007 L127.266847,117.020456 L127.94852,112.930421 L29.7876708,42.2636988 L29.5604466,190.186644 L32.0599126,193.595007 Z" opacity="0.1" fill="#231F20"></path>
		<path d="M16.1542195,193.595007 C7.29247625,193.595007 0.248526454,186.551057 0.248526454,177.689314 L0.248526454,16.5873656 C0.248526454,7.72562236 7.29247625,6.13505305 16.1542195,6.13505305 C25.0159628,6.13505305 32.0599126,7.95284654 32.0599126,16.5873656 L32.0599126,193.595007 L16.1542195,193.595007 L16.1542195,193.595007 Z" fill="#D54B3D"></path>
		<path d="M16.1542195,8.40729492 C27.5154289,8.40729492 29.7876708,11.8156577 29.7876708,16.5873656 L29.7876708,191.322765 L16.1542195,191.322765 C8.65582137,191.322765 2.52076832,185.187712 2.52076832,177.689314 L2.52076832,16.5873656 C2.52076832,11.5884335 4.79301019,8.40729492 16.1542195,8.40729492 L16.1542195,8.40729492 Z M16.1542195,6.13505305 C7.29247625,6.13505305 0.248526454,7.95284654 0.248526454,16.5873656 L0.248526454,177.689314 C0.248526454,186.551057 7.29247625,193.595007 16.1542195,193.595007 L32.0599126,193.595007 L32.0599126,16.5873656 C32.0599126,7.72562236 25.0159628,6.13505305 16.1542195,6.13505305 L16.1542195,6.13505305 L16.1542195,6.13505305 Z" fill="#D72B27"></path>
		<path d="M238.833923,193.595007 L222.92823,193.595007 L222.92823,16.1329173 C222.92823,7.27117398 229.972179,6.13505305 238.833923,6.13505305 C247.695666,6.13505305 254.739616,7.27117398 254.739616,16.1329173 L254.739616,177.916538 C254.739616,186.551057 247.695666,193.595007 238.833923,193.595007 L238.833923,193.595007 Z" fill="#D54B3D"></path>
		<path d="M238.833923,8.40729492 C249.059011,8.40729492 252.467374,10.4523126 252.467374,16.1329173 L252.467374,177.916538 C252.467374,185.414937 246.332321,191.54999 238.833923,191.54999 L225.200472,191.54999 L225.200472,16.1329173 C225.200472,10.2250884 228.608834,8.40729492 238.833923,8.40729492 L238.833923,8.40729492 Z M238.833923,6.13505305 C229.972179,6.13505305 222.92823,7.27117398 222.92823,16.1329173 L222.92823,193.822231 L238.833923,193.822231 C247.695666,193.822231 254.739616,186.778282 254.739616,177.916538 L254.739616,16.1329173 C254.739616,7.27117398 247.695666,6.13505305 238.833923,6.13505305 L238.833923,6.13505305 L238.833923,6.13505305 Z" fill="#D72B27"></path>
		<path d="M170.666667,193.595007 L1.57979906,23.1947544 L10.4736149,26.8124541 L128.175744,111.567076 L254.73962,18.7604631 L254.739616,177.916538 C254.739616,186.551057 247.695666,193.595007 238.833923,193.595007 L170.666667,193.595007 Z" fill="url(#linearGradient-1)"></path>
		<path d="M127.266847,117.020456 L7.06525206,29.7663685 C0.0213022675,24.5402122 -2.02371542,14.542348 3.20244088,7.49839817 C8.42859718,0.454448374 18.6536856,-1.13612093 25.9248596,4.09003537 L127.494071,77.9378961 L229.744955,3.18113862 C236.788905,-2.04501768 246.786769,-0.454448374 252.012926,6.81672561 C257.239082,13.8606754 255.648513,23.8585396 248.377339,29.0846959 L127.266847,117.020456 L127.266847,117.020456 Z" fill="#D54B3D"></path>
		<path d="M238.833923,2.27224187 L238.833923,2.27224187 C243.151182,2.27224187 247.241218,4.31725955 249.967908,7.95284654 C254.285167,14.0878996 252.921822,22.4951945 247.013993,27.0396782 L127.266847,114.293766 L8.42859718,27.948575 C2.29354414,23.4040913 0.702974828,14.7695722 5.02023438,8.86174329 C7.51970044,5.45338049 11.83696,3.18113862 16.3814437,3.18113862 C19.3353582,3.18113862 22.2892726,4.09003537 24.5615145,5.90782886 L125.903502,79.5284654 L127.266847,80.4373622 L128.630192,79.5284654 L230.653852,4.77170793 C233.153318,3.18113862 235.880008,2.27224187 238.833923,2.27224187 L238.833923,2.27224187 Z M238.833923,0 C235.652784,0 232.244421,0.908896748 229.517731,2.95391443 L127.266847,77.7106719 L25.6976354,3.86281118 C22.9709451,1.8177935 19.5625823,0.908896748 16.1542195,0.908896748 C11.1552874,0.908896748 6.15635532,3.18113862 2.9752167,7.49839817 C-2.02371542,14.542348 0.0213022675,24.5402122 7.06525206,29.7663685 L127.266847,117.24768 L248.150114,29.0846959 C255.194064,23.8585396 256.784634,14.0878996 251.785701,6.81672561 C248.604563,2.27224187 243.832855,0 238.833923,0 L238.833923,0 L238.833923,0 Z" fill="#D72B27"></path>
	</g>
</svg>
